elementary-xfce/actions/16/object-to-path.svg

<?xml version="1.0" encoding="UTF-8" standalone="no"?>
<svg
   xmlns:dc="http://purl.org/dc/elements/1.1/"
   xmlns:cc="http://creativecommons.org/ns#"
   xmlns:rdf="http://www.w3.org/1999/02/22-rdf-syntax-ns#"
   xmlns:svg="http://www.w3.org/2000/svg"
   xmlns="http://www.w3.org/2000/svg"
   version="1.1"
   width="16"
   height="16"
   id="svg8472">
  <defs
     id="defs8474" />
  <metadata
     id="metadata8477">
    <rdf:RDF>
      <cc:Work
         rdf:about="">
        <dc:format>image/svg+xml</dc:format>
        <dc:type
           rdf:resource="http://purl.org/dc/dcmitype/StillImage" />
        <dc:title>Object To Path</dc:title>
        <dc:date>2006-05-01</dc:date>
        <dc:creator>
          <cc:Agent>
            <dc:title>Lapo Calamandrei</dc:title>
          </cc:Agent>
        </dc:creator>
        <cc:license
           rdf:resource="http://creativecommons.org/licenses/GPL/2.0/" />
        <dc:subject>
          <rdf:Bag>
            <rdf:li>object</rdf:li>
            <rdf:li>convert</rdf:li>
            <rdf:li>path</rdf:li>
            <rdf:li>curve</rdf:li>
          </rdf:Bag>
        </dc:subject>
      </cc:Work>
      <cc:License
         rdf:about="http://creativecommons.org/licenses/GPL/2.0/">
        <cc:permits
           rdf:resource="http://web.resource.org/cc/Reproduction" />
        <cc:permits
           rdf:resource="http://web.resource.org/cc/Distribution" />
        <cc:requires
           rdf:resource="http://web.resource.org/cc/Notice" />
        <cc:permits
           rdf:resource="http://web.resource.org/cc/DerivativeWorks" />
        <cc:requires
           rdf:resource="http://web.resource.org/cc/ShareAlike" />
        <cc:requires
           rdf:resource="http://web.resource.org/cc/SourceCode" />
      </cc:License>
    </rdf:RDF>
  </metadata>
  <g
     id="layer1">
    <path
       d="m 392.6875,430.53125 a 8.125,8.03125 0 1 1 -16.25,0 8.125,8.03125 0 1 1 16.25,0 z"
       transform="matrix(0.6816567,0,0,0.6924777,-254.17807,-290.07183)"
       id="path6811"
       style="fill:none;stroke:#204a87;stroke-width:4.3665204;stroke-linecap:square;stroke-linejoin:miter;stroke-miterlimit:4;stroke-opacity:1;stroke-dasharray:none;stroke-dashoffset:0" />
    <path
       d="m 392.6875,430.53125 a 8.125,8.03125 0 1 1 -16.25,0 8.125,8.03125 0 1 1 16.25,0 z"
       transform="matrix(0.6816565,0,0,0.6923884,-254.17796,-290.03394)"
       id="path6813"
       style="fill:none;stroke:#91b6dd;stroke-width:1.74672115;stroke-linecap:square;stroke-linejoin:miter;stroke-miterlimit:4;stroke-opacity:1;stroke-dasharray:none;stroke-dashoffset:0" />
    <g
       transform="translate(-384,-423.99995)"
       id="g6773">
      <path
         d="m 389.5,435.50001 4,0 0,3.99994 -4,0 0,-3.99994 z"
         id="path6769"
         style="fill:#babdb6;fill-opacity:1;stroke:#888a85;stroke-width:1.00000024;stroke-linecap:round;stroke-linejoin:round;stroke-miterlimit:4;stroke-opacity:1" />
      <path
         d="m 390.5,436.50002 2,0 0,2.00008 -2,0 0,-2.00008 z"
         id="path6771"
         style="fill:none;stroke:#ffffff;stroke-width:1.00000048;stroke-linecap:round;stroke-linejoin:miter;stroke-miterlimit:4;stroke-opacity:1" />
    </g>
    <g
       transform="translate(-383,-434.99995)"
       id="g6777">
      <path
         d="m 389.5,435.50001 4,0 0,3.99994 -4,0 0,-3.99994 z"
         id="path6779"
         style="fill:#babdb6;fill-opacity:1;stroke:#888a85;stroke-width:1.00000024;stroke-linecap:round;stroke-linejoin:round;stroke-miterlimit:4;stroke-opacity:1" />
      <path
         d="m 390.5,436.50002 2,0 0,2.00008 -2,0 0,-2.00008 z"
         id="path6781"
         style="fill:none;stroke:#ffffff;stroke-width:1.00000048;stroke-linecap:round;stroke-linejoin:miter;stroke-miterlimit:4;stroke-opacity:1" />
    </g>
    <g
       transform="matrix(0,1,-1,0,439.99995,-383.99997)"
       id="g6789">
      <path
         d="m 389.5,435.50001 4,0 0,3.99994 -4,0 0,-3.99994 z"
         id="path6792"
         style="fill:#babdb6;fill-opacity:1;stroke:#888a85;stroke-width:1.00000024;stroke-linecap:round;stroke-linejoin:round;stroke-miterlimit:4;stroke-opacity:1" />
      <path
         d="m 390.5,436.50002 2,0 0,2.00008 -2,0 0,-2.00008 z"
         id="path6794"
         style="fill:none;stroke:#ffffff;stroke-width:1.00000048;stroke-linecap:round;stroke-linejoin:miter;stroke-miterlimit:4;stroke-opacity:1" />
    </g>
    <g
       transform="translate(-5,0)"
       id="g9548">
      <path
         d="m 20.49994,6.50003 0,4 -3.99994,0 0,-4 3.99994,0 z"
         id="path6798"
         style="fill:#babdb6;fill-opacity:1;stroke:#888a85;stroke-width:1.00000024;stroke-linecap:round;stroke-linejoin:round;stroke-miterlimit:4;stroke-opacity:1" />
      <path
         d="m 19.49993,7.50003 0,2 -2.00008,0 0,-2 2.00008,0 z"
         id="path6800"
         style="fill:none;stroke:#ffffff;stroke-width:1.00000048;stroke-linecap:round;stroke-linejoin:miter;stroke-miterlimit:4;stroke-opacity:1" />
    </g>
  </g>
</svg>

<?xml version="1.0" encoding="UTF-8" standalone="no"?>
<svg
   xmlns:dc="http://purl.org/dc/elements/1.1/"
   xmlns:cc="http://creativecommons.org/ns#"
   xmlns:rdf="http://www.w3.org/1999/02/22-rdf-syntax-ns#"
   xmlns:svg="http://www.w3.org/2000/svg"
   xmlns="http://www.w3.org/2000/svg"
   width="16px"
   height="16px"
   id="svg8472"
   version="1.1">
  <defs
     id="defs8474" />
  <metadata
     id="metadata8477">
    <rdf:RDF>
      <cc:Work
         rdf:about="">
        <dc:format>image/svg+xml</dc:format>
        <dc:type
           rdf:resource="http://purl.org/dc/dcmitype/StillImage" />
        <dc:title>Object To Path</dc:title>
        <dc:date>2006-05-01</dc:date>
        <dc:creator>
          <cc:Agent>
            <dc:title>Lapo Calamandrei</dc:title>
          </cc:Agent>
        </dc:creator>
        <cc:license
           rdf:resource="http://creativecommons.org/licenses/GPL/2.0/" />
        <dc:subject>
          <rdf:Bag>
            <rdf:li>object</rdf:li>
            <rdf:li>convert</rdf:li>
            <rdf:li>path</rdf:li>
            <rdf:li>curve</rdf:li>
          </rdf:Bag>
        </dc:subject>
      </cc:Work>
      <cc:License
         rdf:about="http://creativecommons.org/licenses/GPL/2.0/">
        <cc:permits
           rdf:resource="http://web.resource.org/cc/Reproduction" />
        <cc:permits
           rdf:resource="http://web.resource.org/cc/Distribution" />
        <cc:requires
           rdf:resource="http://web.resource.org/cc/Notice" />
        <cc:permits
           rdf:resource="http://web.resource.org/cc/DerivativeWorks" />
        <cc:requires
           rdf:resource="http://web.resource.org/cc/ShareAlike" />
        <cc:requires
           rdf:resource="http://web.resource.org/cc/SourceCode" />
      </cc:License>
    </rdf:RDF>
  </metadata>
  <g
     id="layer1">
    <path
       style="fill:none;fill-opacity:1;stroke:#204a87;stroke-width:4.3665204;stroke-linecap:square;stroke-linejoin:miter;stroke-miterlimit:4;stroke-dasharray:none;stroke-dashoffset:0;stroke-opacity:1"
       id="path6811"
       d="M 392.6875 430.53125 A 8.125 8.03125 0 1 1  376.4375,430.53125 A 8.125 8.03125 0 1 1  392.6875 430.53125 z"
       transform="matrix(0.6816567,0,0,0.6924777,-254.17807,-290.07183)" />
    <path
       style="fill:none;fill-opacity:1;stroke:#91b6dd;stroke-width:1.74672109;stroke-linecap:square;stroke-linejoin:miter;stroke-miterlimit:4;stroke-dasharray:none;stroke-dashoffset:0;stroke-opacity:1"
       id="path6813"
       d="M 392.6875 430.53125 A 8.125 8.03125 0 1 1  376.4375,430.53125 A 8.125 8.03125 0 1 1  392.6875 430.53125 z"
       transform="matrix(0.6816565,0,0,0.6923884,-254.17796,-290.03394)" />
    <g
       id="g6773"
       transform="translate(-384,-423.99995)">
      <path
         style="opacity:1;fill:#babdb6;fill-opacity:1;stroke:#888a85;stroke-width:1.00000024;stroke-linecap:round;stroke-linejoin:round;stroke-miterlimit:4;stroke-opacity:1"
         d="M 389.5,435.50001 L 393.5,435.50001 L 393.5,439.49995 L 389.5,439.49995 L 389.5,435.50001 z "
         id="path6769" />
      <path
         style="opacity:1;fill:none;fill-opacity:1;stroke:#ffffff;stroke-width:1.00000048;stroke-linecap:round;stroke-linejoin:miter;stroke-miterlimit:4;stroke-opacity:1"
         d="M 390.5,436.50002 L 392.5,436.50002 L 392.5,438.5001 L 390.5,438.5001 L 390.5,436.50002 z "
         id="path6771" />
    </g>
    <g
       id="g6777"
       transform="translate(-383,-434.99995)">
      <path
         style="opacity:1;fill:#babdb6;fill-opacity:1;stroke:#888a85;stroke-width:1.00000024;stroke-linecap:round;stroke-linejoin:round;stroke-miterlimit:4;stroke-opacity:1"
         d="M 389.5,435.50001 L 393.5,435.50001 L 393.5,439.49995 L 389.5,439.49995 L 389.5,435.50001 z "
         id="path6779" />
      <path
         style="opacity:1;fill:none;fill-opacity:1;stroke:#ffffff;stroke-width:1.00000048;stroke-linecap:round;stroke-linejoin:miter;stroke-miterlimit:4;stroke-opacity:1"
         d="M 390.5,436.50002 L 392.5,436.50002 L 392.5,438.5001 L 390.5,438.5001 L 390.5,436.50002 z "
         id="path6781" />
    </g>
    <g
       transform="matrix(0,1,-1,0,439.99995,-383.99997)"
       id="g6789">
      <path
         id="path6792"
         d="M 389.5,435.50001 L 393.5,435.50001 L 393.5,439.49995 L 389.5,439.49995 L 389.5,435.50001 z "
         style="opacity:1;fill:#babdb6;fill-opacity:1;stroke:#888a85;stroke-width:1.00000024;stroke-linecap:round;stroke-linejoin:round;stroke-miterlimit:4;stroke-opacity:1" />
      <path
         id="path6794"
         d="M 390.5,436.50002 L 392.5,436.50002 L 392.5,438.5001 L 390.5,438.5001 L 390.5,436.50002 z "
         style="opacity:1;fill:none;fill-opacity:1;stroke:#ffffff;stroke-width:1.00000048;stroke-linecap:round;stroke-linejoin:miter;stroke-miterlimit:4;stroke-opacity:1" />
    </g>
    <g
       id="g9548"
       transform="translate(-5,0)">
      <path
         style="fill:#babdb6;fill-opacity:1;stroke:#888a85;stroke-width:1.00000024;stroke-linecap:round;stroke-linejoin:round;stroke-miterlimit:4;stroke-opacity:1"
         d="M 20.49994,6.50003 L 20.49994,10.50003 L 16.5,10.50003 L 16.5,6.50003 L 20.49994,6.50003 z "
         id="path6798" />
      <path
         style="fill:none;fill-opacity:1;stroke:#ffffff;stroke-width:1.00000048;stroke-linecap:round;stroke-linejoin:miter;stroke-miterlimit:4;stroke-opacity:1"
         d="M 19.49993,7.50003 L 19.49993,9.50003 L 17.49985,9.50003 L 17.49985,7.50003 L 19.49993,7.50003 z "
         id="path6800" />
    </g>
  </g>
</svg>
